_includes/icons/ios-ftp.svg

<svg fill="#666" height="50" viewBox="0 0 50 50" width="50" xmlns="http://www.w3.org/2000/svg"><path d="m3 6c-1.644531 0-3 1.355469-3 3v32c0 1.644531 1.355469 3 3 3h42c1.644531 0 3-1.355469 3-3v-17c.003906-.359375-.183594-.695312-.496094-.878906-.3125-.179688-.695312-.179688-1.007812 0-.3125.183594-.5.519531-.496094.878906v17c0 .566406-.433594 1-1 1h-42c-.566406 0-1-.433594-1-1v-32c0-.566406.433594-1 1-1h11.1875c.265625 0 .5.09375.6875.28125l2.40625 2.4375c.191406.1875.453125.289063.71875.28125h15c.359375.003906.695313-.183594.878906-.496094.179688-.3125.179688-.695312 0-1.007812-.183593-.3125-.519531-.5-.878906-.496094h-14.5625l-2.15625-2.125c-.5625-.5625-1.296875-.875-2.09375-.875zm33.90625.96875c-.042969.007813-.085937.019531-.125.03125-.464844.105469-.792969.523438-.78125 1 0 7.167969 5.832031 13 13 13 .359375.003906.695313-.183594.878906-.496094.179688-.3125.179688-.695312 0-1.007812-.183593-.3125-.519531-.5-.878906-.496094-6.085937 0-11-4.914062-11-11 .011719-.289062-.105469-.566406-.3125-.761719-.210937-.199218-.496094-.296875-.78125-.269531zm4 0c-.042969.007813-.085937.019531-.125.03125-.464844.105469-.792969.523438-.78125 1 0 4.957031 4.042969 9 9 9 .359375.003906.695313-.183594.878906-.496094.179688-.3125.179688-.695312 0-1.007812-.183593-.3125-.519531-.5-.878906-.496094-3.878906 0-7-3.121094-7-7 .011719-.289062-.105469-.566406-.3125-.761719-.210937-.199218-.496094-.296875-.78125-.269531zm4 0c-.042969.007813-.085937.019531-.125.03125-.464844.105469-.792969.523438-.78125 1 0 2.75 2.25 5 5 5 .359375.003906.695313-.183594.878906-.496094.179688-.3125.179688-.695312 0-1.007812-.183593-.3125-.519531-.5-.878906-.496094-1.667969 0-3-1.332031-3-3 .011719-.289062-.105469-.566406-.3125-.761719-.210937-.199218-.496094-.296875-.78125-.269531zm4.09375.03125c-.550781 0-1 .449219-1 1s.449219 1 1 1 1-.449219 1-1-.449219-1-1-1z"/></svg>

<svg xmlns="http://www.w3.org/2000/svg" viewBox="0 0 50 50" width="50" height="50" fill="#666"><path d="M 3 6 C 1.355469 6 0 7.355469 0 9 L 0 41 C 0 42.644531 1.355469 44 3 44 L 45 44 C 46.644531 44 48 42.644531 48 41 L 48 24 C 48.003906 23.640625 47.816406 23.304688 47.503906 23.121094 C 47.191406 22.941406 46.808594 22.941406 46.496094 23.121094 C 46.183594 23.304688 45.996094 23.640625 46 24 L 46 41 C 46 41.566406 45.566406 42 45 42 L 3 42 C 2.433594 42 2 41.566406 2 41 L 2 9 C 2 8.433594 2.433594 8 3 8 L 14.1875 8 C 14.453125 8 14.6875 8.09375 14.875 8.28125 L 17.28125 10.71875 C 17.472656 10.90625 17.734375 11.007813 18 11 L 33 11 C 33.359375 11.003906 33.695313 10.816406 33.878906 10.503906 C 34.058594 10.191406 34.058594 9.808594 33.878906 9.496094 C 33.695313 9.183594 33.359375 8.996094 33 9 L 18.4375 9 L 16.28125 6.875 C 15.71875 6.3125 14.984375 6 14.1875 6 Z M 36.90625 6.96875 C 36.863281 6.976563 36.820313 6.988281 36.78125 7 C 36.316406 7.105469 35.988281 7.523438 36 8 C 36 15.167969 41.832031 21 49 21 C 49.359375 21.003906 49.695313 20.816406 49.878906 20.503906 C 50.058594 20.191406 50.058594 19.808594 49.878906 19.496094 C 49.695313 19.183594 49.359375 18.996094 49 19 C 42.914063 19 38 14.085938 38 8 C 38.011719 7.710938 37.894531 7.433594 37.6875 7.238281 C 37.476563 7.039063 37.191406 6.941406 36.90625 6.96875 Z M 40.90625 6.96875 C 40.863281 6.976563 40.820313 6.988281 40.78125 7 C 40.316406 7.105469 39.988281 7.523438 40 8 C 40 12.957031 44.042969 17 49 17 C 49.359375 17.003906 49.695313 16.816406 49.878906 16.503906 C 50.058594 16.191406 50.058594 15.808594 49.878906 15.496094 C 49.695313 15.183594 49.359375 14.996094 49 15 C 45.121094 15 42 11.878906 42 8 C 42.011719 7.710938 41.894531 7.433594 41.6875 7.238281 C 41.476563 7.039063 41.191406 6.941406 40.90625 6.96875 Z M 44.90625 6.96875 C 44.863281 6.976563 44.820313 6.988281 44.78125 7 C 44.316406 7.105469 43.988281 7.523438 44 8 C 44 10.75 46.25 13 49 13 C 49.359375 13.003906 49.695313 12.816406 49.878906 12.503906 C 50.058594 12.191406 50.058594 11.808594 49.878906 11.496094 C 49.695313 11.183594 49.359375 10.996094 49 11 C 47.332031 11 46 9.667969 46 8 C 46.011719 7.710938 45.894531 7.433594 45.6875 7.238281 C 45.476563 7.039063 45.191406 6.941406 44.90625 6.96875 Z M 49 7 C 48.449219 7 48 7.449219 48 8 C 48 8.550781 48.449219 9 49 9 C 49.550781 9 50 8.550781 50 8 C 50 7.449219 49.550781 7 49 7 Z"/></svg>
